src/assets/img/icons/duotone-icons/Media/Airplay.svg

<?xml version="1.0" encoding="UTF-8"?>
<svg width="24px" height="24px" viewBox="0 0 24 24" version="1.1" xmlns="http://www.w3.org/2000/svg" xmlns:xlink="http://www.w3.org/1999/xlink">
    <!-- Generator: Sketch 52.2 (67145) - http://www.bohemiancoding.com/sketch -->
    <title>Stockholm-icons / Media / Airplay</title>
    <desc>Created with Sketch.</desc>
    <g id="Stockholm-icons-/-Media-/-Airplay" stroke="none" stroke-width="1" fill="none" fill-rule="evenodd">
        <rect id="bound" x="0" y="0" width="24" height="24"></rect>
        <polygon id="Path-15" fill="#335EEA" opacity="0.3" points="8 21 16 21 12 16"></polygon>
        <path d="M17.4029496,14.5491021 L15.8599014,15.8215022 C14.9149052,14.675499 13.5137472,14 12,14 C10.4912085,14 9.09418404,14.6710418 8.14910121,15.8106159 L6.60963188,14.533888 C7.93073905,12.9409064 9.88958759,12 12,12 C14.1173586,12 16.0819686,12.9471394 17.4029496,14.5491021 Z M20.4681628,11.9788888 L18.929169,13.2561898 C17.2286725,11.2072964 14.7140097,10 12,10 C9.28974232,10 6.77820732,11.2039334 5.07766256,13.2479685 L3.54017812,11.968851 C5.61676443,9.47281829 8.68922234,8 12,8 C15.3153667,8 18.3916375,9.47692603 20.4681628,11.9788888 Z M23.2904427,9.72048884 L21.678507,10.9044074 C19.4302828,7.84339199 15.8698431,6 12,6 C8.0766912,6 4.47282622,7.89509192 2.2325887,11.0270624 L0.605887503,9.86351476 C3.21772389,6.21202937 7.42430358,4 12,4 C16.5132783,4 20.6693179,6.15175957 23.2904427,9.72048884 Z" id="Combined-Shape" fill="#335EEA"></path>
    </g>
</svg>

<svg width="24" height="24" viewBox="0 0 24 24" xmlns="http://www.w3.org/2000/svg"><g fill="none" fill-rule="evenodd"><path d="M0 0h24v24H0z"/><path fill="#335EEA" opacity=".3" d="M8 21h8l-4-5z"/><path d="M17.403 14.55l-1.543 1.272A4.987 4.987 0 0012 14a4.987 4.987 0 00-3.85 1.81l-1.54-1.276A6.986 6.986 0 0112 12c2.117 0 4.082.947 5.403 2.55zm3.065-2.571l-1.539 1.277A8.978 8.978 0 0012 10a8.978 8.978 0 00-6.922 3.248l-1.538-1.28A10.977 10.977 0 0112 8c3.315 0 6.392 1.477 8.468 3.979zM23.29 9.72l-1.611 1.184A11.98 11.98 0 0012 6a11.981 11.981 0 00-9.767 5.027L.606 9.864A13.98 13.98 0 0112 4a13.98 13.98 0 0111.29 5.72z" fill="#335EEA"/></g></svg>
